X: 4
T: The Yellow Tinker
R: reel
M: 4/4
L: 1/8
K: Gmix
DG~G2 DF~F2|DG~G2 dGcG| DGGF DCDF| cAFA c2AF:|
G2BG dGeG| G2BG ABcA|dG~G2 defd|cAFA c2Bc|dG~G2 eG~G2|dG~G2 ABcA|dcde fefd|cAFA c2AF|


Tune 1554	Setting 29259

